public/images/hashed/d76711f15b0ce094ffeeea0a715ab5b0.svg

<?xml version="1.0" encoding="UTF-8"?>
<svg width="80px" height="80px" viewBox="0 0 80 80" version="1.1" xmlns="http://www.w3.org/2000/svg" xmlns:xlink="http://www.w3.org/1999/xlink">
    <!-- Generator: Sketch 64 (93537) - https://sketch.com -->
    <title>Icon-Architecture/64/Arch_Amazon-ElastiCache_64</title>
    <desc>Created with Sketch.</desc>
    <defs>
        <linearGradient x1="0%" y1="100%" x2="100%" y2="0%" id="linearGradient-1">
            <stop stop-color="#2E27AD" offset="0%"></stop>
            <stop stop-color="#527FFF" offset="100%"></stop>
        </linearGradient>
    </defs>
    <g id="Icon-Architecture/64/Arch_Amazon-ElastiCache_64" stroke="none" stroke-width="1" fill="none" fill-rule="evenodd">
        <g id="Icon-Architecture-BG/64/Database" fill="url(#linearGradient-1)">
            <rect id="Rectangle" x="0" y="0" width="80" height="80"></rect>
        </g>
        <path d="M51,61.5554864 L51,55.7029342 C48.466,57.3400887 43.904,58.1131616 39.556,58.1131616 C34.816,58.1131616 31.121,57.2860836 29,55.8679498 L29,61.5554864 C29,63.2486461 32.948,64.9998113 39.556,64.9998113 C46.3,64.9998113 51,63.1846401 51,61.5554864 L51,61.5554864 Z M39.556,49.2203227 C34.816,49.2203227 31.121,48.3942447 29,46.976111 L29,52.6866497 C29.031,54.3738088 32.973,56.1129729 39.556,56.1129729 C46.279,56.1129729 50.969,54.3088027 51,52.6826493 L51,46.8100953 C48.466,48.4482498 43.904,49.2203227 39.556,49.2203227 L39.556,49.2203227 Z M51,43.7908105 L51,37.0291726 C48.466,38.666327 43.904,39.4393999 39.556,39.4393999 C34.816,39.4393999 31.121,38.613322 29,37.1951882 L29,43.7948108 C29.031,45.48197 32.973,47.220134 39.556,47.220134 C46.279,47.220134 50.969,45.4159638 51,43.7908105 L51,43.7908105 Z M28.997,33.9928861 C28.997,33.9958864 28.998,33.9988867 28.998,34.001887 L29,34.001887 L29,34.012888 C29.031,35.7000472 32.973,37.4392112 39.556,37.4392112 C46.898,37.4392112 50.969,35.4170205 51,34.0098877 L51,34.001887 L51.002,34.001887 C51.002,33.9988867 51.003,33.9958864 51.003,33.9928861 C51.003,32.5847533 46.927,30.546561 39.556,30.546561 C32.946,30.546561 28.997,32.2987263 28.997,33.9928861 L28.997,33.9928861 Z M53,34.0178885 L53,43.7738088 L53.003,43.7738088 C53.003,43.7828097 53,43.7898104 53,43.7988112 L53,52.6666478 L53.003,52.6666478 C53.003,52.6756486 53,52.6826493 53,52.6916502 L53,61.5554864 C53,65.2968393 46.031,67 39.556,67 C31.929,67 27,64.8627984 27,61.5554864 L27,52.6976507 C27,52.6866497 26.997,52.6776488 26.997,52.6666478 L27,52.6666478 L27,43.8048118 C27,43.7948108 26.997,43.7848099 26.997,43.7738088 L27,43.7738088 L27,34.023889 C27,34.012888 26.997,34.0038872 26.997,33.9928861 C26.997,30.684574 31.927,28.5463723 39.556,28.5463723 C46.032,28.5463723 53.003,30.2505331 53.003,33.9928861 C53.003,34.001887 53,34.0088876 53,34.0178885 L53,34.0178885 Z M67,21.1206718 C67.553,21.1206718 68,20.6726295 68,20.1205774 L68,15.0000943 C68,14.4470422 67.553,14 67,14 L13,14 C12.447,14 12,14.4470422 12,15.0000943 L12,20.1205774 C12,20.6726295 12.447,21.1206718 13,21.1206718 C14.221,21.1206718 15.214,22.1077649 15.214,23.3208793 C15.214,24.5339938 14.221,25.5210869 13,25.5210869 C12.447,25.5210869 12,25.9691292 12,26.5211812 L12,47.0031135 C12,47.5551656 12.447,48.0032078 13,48.0032078 L23,48.0032078 L23,46.0030192 L18,46.0030192 L18,43.0027361 L23,43.0027361 L23,41.0025474 L17,41.0025474 C16.447,41.0025474 16,41.4495896 16,42.0026418 L16,46.0030192 L14,46.0030192 L14,27.4012643 C15.843,26.9522219 17.214,25.2930654 17.214,23.3208793 C17.214,21.3476932 15.843,19.6885367 14,19.2394943 L14,16.0001887 L66,16.0001887 L66,19.2394943 C64.157,19.6885367 62.786,21.3476932 62.786,23.3208793 C62.786,25.2930654 64.157,26.9522219 66,27.4012643 L66,46.0030192 L64,46.0030192 L64,42.0026418 C64,41.4495896 63.553,41.0025474 63,41.0025474 L57,41.0025474 L57,43.0027361 L62,43.0027361 L62,46.0030192 L57,46.0030192 L57,48.0032078 L67,48.0032078 C67.553,48.0032078 68,47.5551656 68,47.0031135 L68,26.5211812 C68,25.9691292 67.553,25.5210869 67,25.5210869 C65.779,25.5210869 64.786,24.5339938 64.786,23.3208793 C64.786,22.1077649 65.779,21.1206718 67,21.1206718 L67,21.1206718 Z M28,28.0013209 L28,20.0005661 C28,19.4475139 27.553,19.0004717 27,19.0004717 L21,19.0004717 C20.447,19.0004717 20,19.4475139 20,20.0005661 L20,37.00217 C20,37.5542221 20.447,38.0022644 21,38.0022644 L24,38.0022644 L24,36.0020757 L22,36.0020757 L22,21.0006604 L26,21.0006604 L26,28.0013209 L28,28.0013209 Z M58,36.0020757 L57,36.0020757 L57,38.0022644 L59,38.0022644 C59.553,38.0022644 60,37.5542221 60,37.00217 L60,20.0005661 C60,19.4475139 59.553,19.0004717 59,19.0004717 L53,19.0004717 C52.447,19.0004717 52,19.4475139 52,20.0005661 L52,28.0013209 L54,28.0013209 L54,21.0006604 L58,21.0006604 L58,36.0020757 Z M50,27.0012265 L50,20.0005661 C50,19.4475139 49.553,19.0004717 49,19.0004717 L42,19.0004717 C41.447,19.0004717 41,19.4475139 41,20.0005661 L41,26.0011322 L43,26.0011322 L43,21.0006604 L48,21.0006604 L48,27.0012265 L50,27.0012265 Z M37,26.0011322 L37,21.0006604 L32,21.0006604 L32,27.0012265 L30,27.0012265 L30,20.0005661 C30,19.4475139 30.447,19.0004717 31,19.0004717 L38,19.0004717 C38.553,19.0004717 39,19.4475139 39,20.0005661 L39,26.0011322 L37,26.0011322 Z" id="Amazon-ElastiCache_Icon_64_Squid" fill="#FFFFFF"></path>
    </g>
</svg>

<svg xmlns="http://www.w3.org/2000/svg" width="80" height="80"><defs><linearGradient id="a" x1="0%" x2="100%" y1="100%" y2="0%"><stop offset="0%" stop-color="#2E27AD"/><stop offset="100%" stop-color="#527FFF"/></linearGradient></defs><g fill="none" fill-rule="evenodd"><path fill="url(#a)" d="M0 0h80v80H0z"/><path fill="#FFF" d="M51 61.555v-5.852c-2.534 1.637-7.096 2.41-11.444 2.41-4.74 0-8.435-.827-10.556-2.245v5.687C29 63.25 32.948 65 39.556 65 46.3 65 51 63.185 51 61.555ZM39.556 49.22c-4.74 0-8.435-.826-10.556-2.244v5.71c.031 1.688 3.973 3.427 10.556 3.427 6.723 0 11.413-1.804 11.444-3.43V46.81c-2.534 1.638-7.096 2.41-11.444 2.41ZM51 43.79v-6.76c-2.534 1.636-7.096 2.41-11.444 2.41-4.74 0-8.435-.827-10.556-2.245v6.6c.031 1.687 3.973 3.425 10.556 3.425 6.723 0 11.413-1.804 11.444-3.43Zm-22.003-9.797.001.009H29v.01c.031 1.688 3.973 3.427 10.556 3.427 7.342 0 11.413-2.022 11.444-3.43v-.007h.002l.001-.01c0-1.407-4.076-3.445-11.447-3.445-6.61 0-10.559 1.752-10.559 3.446ZM53 34.018v9.756h.003c0 .009-.003.016-.003.025v8.868h.003c0 .009-.003.016-.003.025v8.863C53 65.297 46.031 67 39.556 67 31.929 67 27 64.863 27 61.555v-8.857c0-.011-.003-.02-.003-.031H27v-8.862c0-.01-.003-.02-.003-.031H27v-9.75c0-.011-.003-.02-.003-.031 0-3.308 4.93-5.447 12.559-5.447 6.476 0 13.447 1.705 13.447 5.447 0 .009-.003.016-.003.025ZM67 21.12a1 1 0 0 0 1-1V15A1 1 0 0 0 67 14H13a1 1 0 0 0-1 1v5.12a1 1 0 0 0 1 1 2.21 2.21 0 0 1 2.214 2.2A2.21 2.21 0 0 1 13 25.522a1 1 0 0 0-1 1v20.482a1 1 0 0 0 1 1h10v-2h-5v-3h5v-2h-6a1 1 0 0 0-1 1v4h-2V27.401a4.21 4.21 0 0 0 3.214-4.08A4.21 4.21 0 0 0 14 19.239V16h52v3.24a4.21 4.21 0 0 0-3.214 4.08A4.21 4.21 0 0 0 66 27.402v18.602h-2v-4a1 1 0 0 0-1-1h-6v2h5v3h-5v2h10a1 1 0 0 0 1-1V26.521a1 1 0 0 0-1-1 2.21 2.21 0 0 1-2.214-2.2c0-1.213.993-2.2 2.214-2.2ZM28 28v-8a1 1 0 0 0-1-1h-6a1 1 0 0 0-1 1v17.001a1 1 0 0 0 1 1h3v-2h-2V21.001h4v7h2Zm30 8.001h-1v2h2a1 1 0 0 0 1-1V20.001a1 1 0 0 0-1-1h-6a1 1 0 0 0-1 1v8h2v-7h4v15.001Zm-8-9V20a1 1 0 0 0-1-1h-7a1 1 0 0 0-1 1v6h2v-5h5v6h2Zm-13-1V21h-5v6h-2v-7a1 1 0 0 1 1-1h7a1 1 0 0 1 1 1v6h-2Z"/></g></svg>
